X:1
T:Title
%%score { ( 1 4 ) | ( 2 3 ) }
L:1/8
M:6/8
K:F
V:1 treble nm="Grand Piano"
V:4 treble 
V:2 treble 
V:3 treble 
V:1
 z3 z[Q:1/4=95] AB | [CAc]2 [CAc] [CAc][_A=B][C=Ac] | [_Ad]3 [=Ac]2 A | F2 F FEF | %4
[M:5/8] [EG]-[EG]- [EG]3 |[M:1/8] [FA] |[M:3/4] [GB]2 [GB][GB] [^FA][GB] | [Ac]2 [GB] A2 A | %8
 G2 cc =Bd |[M:5/8] [Ec]-[Ec]- [Ec]3 |[M:1/8] [Ec] |[M:3/4] [Ec]2 [EG]G F[CEG] | %12
 [CFA]3 [A,CF]2 [A,FA] | [^Fd]2 [FA]A G[DFA] |[M:5/8] [DGB]-[DGB]- [DGB]3 |[M:1/8] [DBd] | %16
[M:3/4] e2 cc de | f2- f/-(3:2:2f/f/4 [_EFc]2 [DFB] | [FA]2 [FA]G F[B,EG] | %19
[M:5/8] [A,F]-[A,F]- [A,F]3 |[M:1/8] z |[M:3/4] d4 [Ac]=B | c6[K:bass] | c2 G[EG] [Gc][Ad] | %24
 [Ge]2 [Fd] [Ec]3 | [Ac]2 [Ac][FA] [GB][Ac] | [Bd][Ac] [_A=B] [=Ac]2 [Ac] | %27
 [GB]2 [GB][EG] [FA][GB] | [Ac]2 [GB] A2 c | d3 e3 | f6 | z2 z .[EG]3 | %32
[M:5/8] [A,F]-[A,F]- [A,F]3 |] %33
V:2
 z3 z FG | F,2 F, z DF, | [F,C]3 [F,C]2 [F,CF] | [F,A,C]2 [F,A,C] [D,G,=B,]2 [G,B,D] | %4
[M:5/8] [C,C]-[C,C]- [C,C]3 |[M:1/8] [C,C] |[M:3/4] [C,C]2 [C,C] [C,C]2 [C,C] | %7
 [F,C]2 [F,C][K:treble] [F,CF]2 [F,CF] | [G,CE]2 [G,CE] [G,DF]2 [G,=B,F] | %9
[M:5/8][K:bass] [C,C]-[C,C]- [C,C]3 |[M:1/8] [C,G,] |[M:3/4] z2 z .[C,C]3 | F,3 F,2 F, | %13
 z2 z .[D,D]3 |[M:5/8] G,-G,- G,3 |[M:1/8] G, |[M:3/4][K:treble] z2 z E z2 | %17
 [A,CF]3[K:bass] A,,2 B,, | z2 z B, z2 |[M:5/8] F,-F,- F,3 |[M:1/8][K:treble] F | %21
[M:3/4] B4[K:bass] z2[K:treble] | A6 | [G,CE]2 [E,C][C,C] [E,C][F,C] | [G,C]2 [G,=B,] [C,C]3 | %25
 [F,C]2 [F,C][F,C] [F,C][F,C] | [F,F][F,F] [F,D] [F,C]2 [F,C] | [C,C]2 [C,C][C,C] [C,C][C,C] | %28
 [F,C]2 [F,C][K:treble] [F,CF]2 [A,CF] | [B,F]2 [B,D] [B,CG]2 [B,C] | %30
 [A,CF]2[K:bass] [A,_E] [B,D]2 B,, | C,3 C, B,F, |[M:5/8] F,-F,- F,3 |] %33
V:3
 z3 z [F,C]2 | z3 .F,3 | x6 | x6 |[M:5/8] x5 |[M:1/8] x |[M:3/4] x6 | x3[K:treble] x3 | x6 | %9
[M:5/8][K:bass] x5 |[M:1/8] x |[M:3/4] [C,G,]2 [C,B,]B, A,C, | x6 | [D,A,]2 [D,C]C B,D, | %14
[M:5/8] x5 |[M:1/8] x |[M:3/4][K:treble] [CG]2 [B,CE][B,G]- [B,DG][B,CG] | x3[K:bass] x3 | %18
 [C,C]2 [C,C][C,C]- [C,A,C]C, |[M:5/8] x5 |[M:1/8][K:treble] x | %21
[M:3/4] z2[K:bass] F,F, F,[K:treble]_A | x6 | x6 | x6 | x6 | x6 | x6 | x3[K:treble] x3 | x6 | %30
 x2[K:bass] x4 | x6 |[M:5/8] x5 |] %33
V:4
 x6 | x6 | x6 | x6 |[M:5/8] x5 |[M:1/8] x |[M:3/4] x6 | x6 | x6 |[M:5/8] x5 |[M:1/8] x | %11
[M:3/4] x6 | x6 | x6 |[M:5/8] x5 |[M:1/8] x |[M:3/4] x6 | x6 | x6 |[M:5/8] x5 |[M:1/8] x | %21
[M:3/4] x6 | z2[K:bass] F, .F,3 | x6 | x6 | x6 | x6 | x6 | x6 | z2 .F2 z G | z2 c B2 [DGB] | %31
 [CFA]3 C z [A,F] |[M:5/8] x5 |] %33

